svg/CV.svg

<?xml version="1.0" encoding="UTF-8"?>
<svg xmlns="http://www.w3.org/2000/svg" xmlns:xlink="http://www.w3.org/1999/xlink" width="128px" height="128px" viewBox="0 0 128 128" version="1.1">
<g id="surface1">
<rect y="0" x="0" height="128" width="128" id="rect842" style="fill:#ffffff;fill-opacity:0;stroke:none;" />
<path style="fill:none;stroke-width:4;stroke-linecap:round;stroke-linejoin:round;stroke:rgb(0%,0%,0%);stroke-opacity:1;stroke-miterlimit:4;" d="M -30.587306 162.528689 L -20.371976 162.528689 C -16.840558 162.528689 -13.979094 165.390153 -13.979094 168.921571 L -13.979094 169.136425 C -13.979094 172.667843 -16.840558 175.529307 -20.371976 175.529307 L -30.587306 175.529307 C -34.11677 175.529307 -36.978235 172.667843 -36.978235 169.136425 L -36.978235 168.921571 C -36.978235 165.390153 -34.11677 162.528689 -30.587306 162.528689 Z M -30.587306 162.528689 " transform="matrix(0,1.999905,-1.999905,0,402.041916,151.956858)"/>
<path style="fill-rule:nonzero;fill:rgb(0%,0%,0%);fill-opacity:1;stroke-width:2;stroke-linecap:round;stroke-linejoin:round;stroke:rgb(100%,100%,100%);stroke-opacity:1;stroke-miterlimit:4;" d="M -30.587306 162.528689 L -20.371976 162.528689 C -16.840558 162.528689 -13.979094 165.390153 -13.979094 168.921571 L -13.979094 169.136425 C -13.979094 172.667843 -16.840558 175.529307 -20.371976 175.529307 L -30.587306 175.529307 C -34.11677 175.529307 -36.978235 172.667843 -36.978235 169.136425 L -36.978235 168.921571 C -36.978235 165.390153 -34.11677 162.528689 -30.587306 162.528689 Z M -30.587306 162.528689 " transform="matrix(0,1.999905,-1.999905,0,402.041916,151.956858)"/>
<path style=" stroke:none;fill-rule:nonzero;fill:rgb(20%,20%,20%);fill-opacity:1;" d="M 64 96 C 61.238281 96 59 93.761719 59 91 C 59 88.242188 61.238281 86.003906 64 86.003906 C 66.761719 86.003906 69 88.242188 69 91 C 69 93.761719 66.761719 96 64 96 Z M 64 96 "/>
<path style=" stroke:none;fill-rule:nonzero;fill:rgb(100%,0%,100%);fill-opacity:1;" d="M 64 116 C 61.238281 116 59 113.761719 59 111 C 59 108.238281 61.238281 106 64 106 C 66.761719 106 69 108.238281 69 111 C 69 113.761719 66.761719 116 64 116 Z M 64 116 "/>
</g>
</svg>

<svg xmlns="http://www.w3.org/2000/svg" width="128" height="128"><path fill="none" d="M0 0h128v128H0z" style="fill:#fff;fill-opacity:0;stroke:none"/><path d="M-30.587 162.529h10.215a6.392 6.392 0 0 1 6.393 6.393v.214a6.392 6.392 0 0 1-6.393 6.393h-10.215a6.392 6.392 0 0 1-6.391-6.393v-.214a6.392 6.392 0 0 1 6.39-6.393Zm0 0" style="fill:none;stroke-width:4;stroke-linecap:round;stroke-linejoin:round;stroke:#000;stroke-opacity:1;stroke-miterlimit:4" transform="matrix(0 1.9999 -1.9999 0 402.042 151.957)"/><path d="M-30.587 162.529h10.215a6.392 6.392 0 0 1 6.393 6.393v.214a6.392 6.392 0 0 1-6.393 6.393h-10.215a6.392 6.392 0 0 1-6.391-6.393v-.214a6.392 6.392 0 0 1 6.39-6.393Zm0 0" style="fill-rule:nonzero;fill:#000;fill-opacity:1;stroke-width:2;stroke-linecap:round;stroke-linejoin:round;stroke:#fff;stroke-opacity:1;stroke-miterlimit:4" transform="matrix(0 1.9999 -1.9999 0 402.042 151.957)"/><path d="M64 96a4.999 4.999 0 1 1 0-9.996A4.999 4.999 0 1 1 64 96Zm0 0" style="stroke:none;fill-rule:nonzero;fill:#333;fill-opacity:1"/><path d="M64 116a5 5 0 1 1 0-10 5 5 0 0 1 0 10Zm0 0" style="stroke:none;fill-rule:nonzero;fill:#f0f;fill-opacity:1"/></svg>
